X: 21684
T: LADY BELHAVEN
Q: "Reel."
%R: reel
B: W. Hamilton "Universal Tune-Book" Vol. 2 Glasgow 1846 p.168 #4 (and p.169 #1)
S: http://s3-eu-west-1.amazonaws.com/itma.dl.printmaterial/book_pdfs/hamiltonvol2web.pdf
Z: 2016 John Chambers <jc:trillian.mit.edu>
M: C
L: 1/8
K: G
% - - - - - - - - - - - - - - - - - - - - - - - - -
c |\
BG G/G/G dBgd | BG G/G/G cA=FA |\
BG G/G/G dBga | b/a/g/f gd BGG :|\
=f |\
e/f/g dg cgBg | A=ffc AFFf |
e/f/g dg cgBg | A=fgd BGG=f |\
e/f/g dg cgBg | A=ffc AFFf |\
ge=fd ecdB | Agfa gGG |]
% - - - - - - - - - - - - - - - - - - - - - - - - -

% (Continued from previous page)

%%sep 1 1 500
%%sep 1 1 500

